app/images/icons/calendar-icon.svg

<?xml version="1.0" encoding="UTF-8" standalone="no"?>
<svg width="76px" height="76px" viewBox="0 0 76 76" version="1.1" xmlns="http://www.w3.org/2000/svg" xmlns:xlink="http://www.w3.org/1999/xlink" xmlns:sketch="http://www.bohemiancoding.com/sketch/ns">
    <!-- Generator: Sketch 3.1 (8751) - http://www.bohemiancoding.com/sketch -->
    <title>calendar-icon</title>
    <desc>Created with Sketch.</desc>
    <defs></defs>
    <g id="Page-1" stroke="none" stroke-width="1" fill="none" fill-rule="evenodd" sketch:type="MSPage">
        <g id="calendar-icon" sketch:type="MSLayerGroup" fill="#1B1A19">
            <path d="M74.7333333,76 L1.26666667,76 C0.57,76 0,75.4933333 0,74.7333333 L0,8.86666667 C0,8.23333333 0.57,7.6 1.26666667,7.6 L14.0473333,7.6 C14.744,7.6 15.314,8.23333333 15.314,8.86666667 C15.314,9.62666667 14.744,10.1333333 14.0473333,10.1333333 L2.53333333,10.1333333 L2.53333333,73.4666667 L73.4666667,73.4666667 L73.4666667,10.1333333 L62.0666667,10.1333333 C61.37,10.1333333 60.8,9.62666667 60.8,8.86666667 C60.8,8.23333333 61.37,7.6 62.0666667,7.6 L74.7333333,7.6 C75.43,7.6 76,8.23333333 76,8.86666667 L76,74.7333333 C76,75.4933333 75.43,76 74.7333333,76" id="Fill-1127" sketch:type="MSShapeGroup"></path>
            <path d="M15.2,12.6666667 L22.8,12.6666667 L22.8,2.53333333 L15.2,2.53333333 L15.2,12.6666667 Z M24.0666667,15.2 L13.9333333,15.2 C13.2366667,15.2 12.6666667,14.6933333 12.6666667,13.9333333 L12.6666667,1.26666667 C12.6666667,0.633333333 13.2366667,0 13.9333333,0 L24.0666667,0 C24.7633333,0 25.3333333,0.633333333 25.3333333,1.26666667 L25.3333333,13.9333333 C25.3333333,14.6933333 24.7633333,15.2 24.0666667,15.2 L24.0666667,15.2 Z" id="Fill-1128" sketch:type="MSShapeGroup"></path>
            <path d="M53.2,12.6666667 L60.8,12.6666667 L60.8,2.53333333 L53.2,2.53333333 L53.2,12.6666667 Z M62.0666667,15.2 L51.9333333,15.2 C51.2366667,15.2 50.6666667,14.6933333 50.6666667,13.9333333 L50.6666667,1.26666667 C50.6666667,0.633333333 51.2366667,0 51.9333333,0 L62.0666667,0 C62.7633333,0 63.3333333,0.633333333 63.3333333,1.26666667 L63.3333333,13.9333333 C63.3333333,14.6933333 62.7633333,15.2 62.0666667,15.2 L62.0666667,15.2 Z" id="Fill-1129" sketch:type="MSShapeGroup"></path>
            <path d="M51.9333333,10.1333333 L24.0666667,10.1333333 C23.37,10.1333333 22.8,9.62666667 22.8,8.86666667 C22.8,8.23333333 23.37,7.6 24.0666667,7.6 L51.9333333,7.6 C52.63,7.6 53.2,8.23333333 53.2,8.86666667 C53.2,9.62666667 52.63,10.1333333 51.9333333,10.1333333" id="Fill-1130" sketch:type="MSShapeGroup"></path>
            <path d="M74.7333333,25.3333333 L1.26666667,25.3333333 C0.57,25.3333333 0,24.8266667 0,24.0666667 C0,23.4333333 0.57,22.8 1.26666667,22.8 L74.7333333,22.8 C75.43,22.8 76,23.4333333 76,24.0666667 C76,24.8266667 75.43,25.3333333 74.7333333,25.3333333" id="Fill-1131" sketch:type="MSShapeGroup"></path>
            <path d="M29.1365,63.282423 C28.4398333,63.282423 27.8698333,62.6490897 27.8698333,62.0157563 L27.8698333,39.8490897 L23.7025,43.902423 C23.2085,44.4090897 22.3978333,44.4090897 21.9038333,43.902423 C21.4098333,43.5236897 21.4098333,42.637023 21.9038333,42.1290897 L28.2371667,35.7957563 C28.6045,35.4157563 29.1491667,35.4157563 29.6178333,35.542423 C30.0991667,35.7957563 30.4031667,36.1757563 30.4031667,36.682423 L30.4031667,62.0157563 C30.4031667,62.6490897 29.8331667,63.282423 29.1365,63.282423" id="Fill-1132" sketch:type="MSShapeGroup"></path>
            <path d="M35.4666667,63.3333333 L22.8,63.3333333 C22.1033333,63.3333333 21.5333333,62.8266667 21.5333333,62.0666667 C21.5333333,61.4333333 22.1033333,60.8 22.8,60.8 L35.4666667,60.8 C36.1633333,60.8 36.7333333,61.4333333 36.7333333,62.0666667 C36.7333333,62.8266667 36.1633333,63.3333333 35.4666667,63.3333333" id="Fill-1133" sketch:type="MSShapeGroup"></path>
            <path d="M44.384,63.3333333 C44.232,63.3333333 44.0673333,63.2079333 43.9153333,63.2079333 C43.2693333,62.9533333 42.9526667,62.1933333 43.206,61.56 L52.592,38 L40.5333333,38 L40.5333333,39.6466667 C40.5333333,40.4079333 39.9633333,40.9133333 39.2666667,40.9133333 C38.57,40.9133333 38,40.4079333 38,39.6466667 L38,36.7333333 C38,36.1 38.57,35.4666667 39.2666667,35.4666667 L54.4666667,35.4666667 C54.8846667,35.4666667 55.2773333,35.7212667 55.518,36.1 C55.746,36.48 55.7966667,36.86 55.6446667,37.24 L45.562,62.4466667 C45.372,62.9533333 44.8906667,63.3333333 44.384,63.3333333" id="Fill-1134" sketch:type="MSShapeGroup"></path>
            <path d="M52.6553333,50.6666667 L43.0666667,50.6666667 C42.37,50.6666667 41.8,50.16 41.8,49.4 C41.8,48.7666667 42.37,48.1333333 43.0666667,48.1333333 L52.6553333,48.1333333 C53.352,48.1333333 53.922,48.7666667 53.922,49.4 C53.922,50.16 53.352,50.6666667 52.6553333,50.6666667" id="Fill-1135" sketch:type="MSShapeGroup"></path>
        </g>
    </g>
</svg>

<svg width="76" height="76" viewBox="0 0 76 76" xmlns="http://www.w3.org/2000/svg">
    <desc>
        Created with Sketch.
    </desc>
    <g fill="#1B1A19">
        <path d="M74.733 76H1.267C.57 76 0 75.493 0 74.733V8.867C0 8.233.57 7.6 1.267 7.6h12.78c.697 0 1.267.633 1.267 1.267 0 .76-.57 1.266-1.267 1.266H2.533v63.334h70.934V10.133h-11.4c-.697 0-1.267-.506-1.267-1.266 0-.634.57-1.267 1.267-1.267h12.666C75.43 7.6 76 8.233 76 8.867v65.866c0 .76-.57 1.267-1.267 1.267"/>
        <path d="M15.2 12.667h7.6V2.533h-7.6v10.134zm8.867 2.533H13.933c-.696 0-1.266-.507-1.266-1.267V1.267c0-.634.57-1.267 1.266-1.267h10.134c.696 0 1.266.633 1.266 1.267v12.666c0 .76-.57 1.267-1.266 1.267z"/>
        <path d="M53.2 12.667h7.6V2.533h-7.6v10.134zm8.867 2.533H51.933c-.696 0-1.266-.507-1.266-1.267V1.267c0-.634.57-1.267 1.266-1.267h10.134c.696 0 1.266.633 1.266 1.267v12.666c0 .76-.57 1.267-1.266 1.267z"/>
        <path d="M51.933 10.133H24.067c-.697 0-1.267-.506-1.267-1.266 0-.634.57-1.267 1.267-1.267h27.866c.697 0 1.267.633 1.267 1.267 0 .76-.57 1.266-1.267 1.266"/>
        <path d="M74.733 25.333H1.267C.57 25.333 0 24.827 0 24.067c0-.634.57-1.267 1.267-1.267h73.466c.697 0 1.267.633 1.267 1.267 0 .76-.57 1.266-1.267 1.266"/>
        <path d="M29.137 63.282c-.697 0-1.267-.633-1.267-1.266V39.85L23.702 43.9c-.494.507-1.304.507-1.798 0-.494-.378-.494-1.265 0-1.773l6.333-6.334c.368-.38.912-.38 1.38-.254.482.254.786.634.786 1.14v25.334c0 .633-.57 1.266-1.266 1.266"/>
        <path d="M35.467 63.333H22.8c-.697 0-1.267-.506-1.267-1.266 0-.634.57-1.267 1.267-1.267h12.667c.696 0 1.266.633 1.266 1.267 0 .76-.57 1.266-1.266 1.266"/>
        <path d="M44.384 63.333c-.152 0-.317-.125-.47-.125-.645-.255-.96-1.015-.708-1.648L52.592 38h-12.06v1.647c0 .76-.57 1.266-1.265 1.266-.697 0-1.267-.505-1.267-1.266v-2.914c0-.633.57-1.266 1.267-1.266h15.2c.418 0 .81.254 1.05.633.23.38.28.76.128 1.14L45.562 62.447c-.19.506-.67.886-1.178.886"/>
        <path d="M52.655 50.667h-9.588c-.697 0-1.267-.507-1.267-1.267 0-.633.57-1.267 1.267-1.267h9.588c.697 0 1.267.634 1.267 1.267 0 .76-.57 1.267-1.267 1.267"/>
    </g>
</svg>
